X: 1
T: Rigney's
M: 4/4
L: 1/8
R: reel
K: Ador
|:d | e2dg e2dB | G2BG dGBG | e2dg e2dB | GBdB BAag |
e2dg e2dB | GABG AGEG | c2Ac BAGE | DEGA BAA :|
|:B | cdef gcec | c2ge dBGB | cdef gcec | dBGA BAAB |
cdef gc3 | g2eg dBGB | c2Ac BAGE | DEGA BAA :|
